static/cards/FrenchDeck/default/card_spades_02.svg

<svg width="219" height="304" viewBox="0 0 219 304" fill="none" xmlns="http://www.w3.org/2000/svg">
<g filter="url(#filter0_d_18_658)">
<g clip-path="url(#clip0_18_658)">
<rect x="8" y="4" width="203" height="288" rx="10" fill="white"/>
<path d="M17.2319 42.1382C17.2319 41.4175 17.5723 40.8569 18.7534 39.5156L27.0815 29.9863C29.3438 27.4038 30.2046 25.7222 30.2046 23.8403C30.2046 21.0176 28.1826 19.1357 25.1396 19.1357C22.5571 19.1357 20.6553 20.6772 20.0547 23.2798C19.7744 24.3408 19.2139 24.8813 18.3931 24.8813C17.4121 24.8813 16.7715 24.1406 16.7715 23.0596C16.7715 19.6562 20.0747 16.0928 25.3599 16.0928C30.2847 16.0928 33.748 19.2158 33.748 23.6201C33.748 26.2227 32.7271 28.1245 29.1235 32.2285L21.7163 40.6968V40.937H32.8271C33.8882 40.937 34.5688 41.5176 34.5688 42.4785C34.5688 43.4194 33.9282 44 32.8271 44H19.6143C18.1528 44 17.2319 43.2993 17.2319 42.1382Z" fill="#211C1D"/>
<path d="M24.2375 72C24.0275 72 23.8572 71.8365 23.8572 71.6348C23.8572 71.2053 24.9342 68.3825 25.1943 66.4832C25.2256 66.2548 24.9357 66.1637 24.8047 66.3495C24.177 67.2399 23.5441 68.1922 21.8225 68.2149C18.615 68.2572 16.7672 65.2101 17.7761 62.4373C18.2708 61.0778 25.0754 52 26 52C26.9245 52 33.7292 61.0778 34.2239 62.4373C35.2328 65.2101 33.385 68.2572 30.1775 68.2149C28.4559 68.1922 27.823 67.2399 27.1953 66.3495C27.0643 66.1637 26.7744 66.2548 26.8057 66.4832C27.0658 68.3825 28.1428 71.2053 28.1428 71.6348C28.1428 71.8365 27.9725 72 27.7625 72H24.2375Z" fill="#211C1D"/>
<path d="M201.768 253.862C201.768 254.583 201.428 255.143 200.247 256.484L191.918 266.014C189.656 268.596 188.795 270.278 188.795 272.16C188.795 274.982 190.817 276.864 193.86 276.864C196.443 276.864 198.345 275.323 198.945 272.72C199.226 271.659 199.786 271.119 200.607 271.119C201.588 271.119 202.229 271.859 202.229 272.94C202.229 276.344 198.925 279.907 193.64 279.907C188.715 279.907 185.252 276.784 185.252 272.38C185.252 269.777 186.273 267.875 189.876 263.771L197.284 255.303L197.284 255.063L186.173 255.063C185.112 255.063 184.431 254.482 184.431 253.521C184.431 252.581 185.072 252 186.173 252L199.386 252C200.847 252 201.768 252.701 201.768 253.862Z" fill="#211C1D"/>
<path d="M194.762 224C194.973 224 195.143 224.164 195.143 224.365C195.143 224.795 194.066 227.617 193.806 229.517C193.774 229.745 194.064 229.836 194.195 229.65C194.823 228.76 195.456 227.808 197.178 227.785C200.385 227.743 202.233 230.79 201.224 233.563C200.729 234.922 193.925 244 193 244C192.075 244 185.271 234.922 184.776 233.563C183.767 230.79 185.615 227.743 188.823 227.785C190.544 227.808 191.177 228.76 191.805 229.65C191.936 229.836 192.226 229.745 192.194 229.517C191.934 227.617 190.857 224.795 190.857 224.365C190.857 224.164 191.027 224 191.238 224L194.762 224Z" fill="#211C1D"/>
<path d="M105.353 76C104.859 76 104.458 75.6076 104.458 75.1235C104.458 74.0926 106.992 67.318 107.604 62.7596C107.678 62.2115 106.996 61.993 106.688 62.4389C105.211 64.5759 103.721 66.8613 99.6706 66.9157C92.1234 67.0172 87.7757 59.7041 90.1497 53.0496C91.3137 49.7867 107.325 28 109.5 28C111.675 28 127.686 49.7867 128.85 53.0496C131.224 59.7041 126.877 67.0172 119.329 66.9157C115.279 66.8613 113.789 64.5759 112.312 62.4389C112.004 61.993 111.322 62.2115 111.396 62.7596C112.008 67.318 114.542 74.0926 114.542 75.1235C114.542 75.6076 114.141 76 113.647 76H105.353Z" fill="#211C1D"/>
<path d="M105.353 220C104.859 220 104.458 220.392 104.458 220.877C104.458 221.907 106.992 228.682 107.604 233.24C107.678 233.789 106.996 234.007 106.688 233.561C105.211 231.424 103.721 229.139 99.6706 229.084C92.1234 228.983 87.7757 236.296 90.1497 242.95C91.3137 246.213 107.325 268 109.5 268C111.675 268 127.686 246.213 128.85 242.95C131.224 236.296 126.877 228.983 119.329 229.084C115.279 229.139 113.789 231.424 112.312 233.561C112.004 234.007 111.322 233.789 111.396 233.24C112.008 228.682 114.542 221.907 114.542 220.877C114.542 220.392 114.141 220 113.647 220H105.353Z" fill="#211C1D"/>
</g>
</g>
<defs>
<filter id="filter0_d_18_658" x="0" y="0" width="219" height="304" filterUnits="userSpaceOnUse" color-interpolation-filters="sRGB">
<feFlood flood-opacity="0" result="BackgroundImageFix"/>
<feColorMatrix in="SourceAlpha" type="matrix" values="0 0 0 0 0 0 0 0 0 0 0 0 0 0 0 0 0 0 127 0" result="hardAlpha"/>
<feOffset dy="4"/>
<feGaussianBlur stdDeviation="4"/>
<feComposite in2="hardAlpha" operator="out"/>
<feColorMatrix type="matrix" values="0 0 0 0 0.614771 0 0 0 0 0.70094 0 0 0 0 0.806257 0 0 0 1 0"/>
<feBlend mode="normal" in2="BackgroundImageFix" result="effect1_dropShadow_18_658"/>
<feBlend mode="normal" in="SourceGraphic" in2="effect1_dropShadow_18_658" result="shape"/>
</filter>
<clipPath id="clip0_18_658">
<rect x="8" y="4" width="203" height="288" rx="10" fill="white"/>
</clipPath>
</defs>
</svg>

<svg xmlns="http://www.w3.org/2000/svg" width="219" height="304" fill="none" viewBox="0 0 219 304"><g filter="url(#a)"><g clip-path="url(#b)"><rect width="203" height="288" x="8" y="4" fill="#fff" rx="10"/><path fill="#211c1d" d="M17.232 42.138c0-.72.34-1.281 1.521-2.622l8.328-9.53c2.263-2.582 3.124-4.264 3.124-6.146 0-2.822-2.022-4.704-5.065-4.704-2.583 0-4.485 1.541-5.085 4.144-.28 1.06-.841 1.601-1.662 1.601-.98 0-1.622-.74-1.622-1.821 0-3.404 3.304-6.967 8.589-6.967 4.925 0 8.388 3.123 8.388 7.527 0 2.603-1.02 4.505-4.624 8.608l-7.408 8.469v.24h11.111c1.061 0 1.742.58 1.742 1.541 0 .941-.64 1.522-1.742 1.522H19.614c-1.461 0-2.382-.7-2.382-1.862M24.238 72a.373.373 0 0 1-.38-.365c0-.43 1.076-3.253 1.336-5.152.032-.228-.258-.32-.39-.133-.627.89-1.26 1.842-2.981 1.865-3.208.042-5.056-3.005-4.047-5.778C18.271 61.077 25.076 52 26 52s7.73 9.078 8.224 10.437c1.009 2.773-.839 5.82-4.046 5.778-1.722-.023-2.355-.975-2.983-1.865-.13-.186-.42-.095-.39.133.26 1.9 1.338 4.722 1.338 5.152 0 .201-.17.365-.38.365zM201.768 253.862c0 .721-.34 1.281-1.521 2.622l-8.329 9.53c-2.262 2.582-3.123 4.264-3.123 6.146 0 2.822 2.022 4.704 5.065 4.704 2.583 0 4.485-1.541 5.085-4.144.281-1.061.841-1.601 1.662-1.601.981 0 1.622.74 1.622 1.821 0 3.404-3.304 6.967-8.589 6.967-4.925 0-8.388-3.123-8.388-7.527 0-2.603 1.021-4.505 4.624-8.609l7.408-8.468v-.24h-11.111c-1.061 0-1.742-.581-1.742-1.542 0-.94.641-1.521 1.742-1.521h13.213c1.461 0 2.382.701 2.382 1.862M194.762 224c.211 0 .381.164.381.365 0 .43-1.077 3.252-1.337 5.152-.032.228.258.319.389.133.628-.89 1.261-1.842 2.983-1.865 3.207-.042 5.055 3.005 4.046 5.778C200.729 234.922 193.925 244 193 244s-7.729-9.078-8.224-10.437c-1.009-2.773.839-5.82 4.047-5.778 1.721.023 2.354.975 2.982 1.865.131.186.421.095.389-.133-.26-1.9-1.337-4.722-1.337-5.152 0-.201.17-.365.381-.365zM105.353 76a.886.886 0 0 1-.895-.876c0-1.031 2.534-7.806 3.146-12.364.074-.548-.608-.767-.916-.321-1.477 2.137-2.967 4.422-7.017 4.477-7.548.101-11.895-7.212-9.521-13.866C91.314 49.787 107.325 28 109.5 28s18.186 21.787 19.35 25.05c2.374 6.654-1.973 13.967-9.521 13.866-4.05-.055-5.54-2.34-7.017-4.477-.308-.446-.99-.227-.916.32.612 4.559 3.146 11.334 3.146 12.365a.886.886 0 0 1-.895.876zM105.353 220a.886.886 0 0 0-.895.877c0 1.03 2.534 7.805 3.146 12.363.074.549-.608.767-.916.321-1.477-2.137-2.967-4.422-7.017-4.477-7.548-.101-11.895 7.212-9.521 13.866 1.164 3.263 17.175 25.05 19.35 25.05s18.186-21.787 19.35-25.05c2.374-6.654-1.973-13.967-9.521-13.866-4.05.055-5.54 2.34-7.017 4.477-.308.446-.99.228-.916-.321.612-4.558 3.146-11.333 3.146-12.363a.886.886 0 0 0-.895-.877z"/></g></g><defs><clipPath id="b"><rect width="203" height="288" x="8" y="4" fill="#fff" rx="10"/></clipPath><filter id="a" width="219" height="304" x="0" y="0" color-interpolation-filters="sRGB" filterUnits="userSpaceOnUse"><feFlood flood-opacity="0" result="BackgroundImageFix"/><feColorMatrix in="SourceAlpha" result="hardAlpha" values="0 0 0 0 0 0 0 0 0 0 0 0 0 0 0 0 0 0 127 0"/><feOffset dy="4"/><feGaussianBlur stdDeviation="4"/><feComposite in2="hardAlpha" operator="out"/><feColorMatrix values="0 0 0 0 0.614771 0 0 0 0 0.70094 0 0 0 0 0.806257 0 0 0 1 0"/><feBlend in2="BackgroundImageFix" result="effect1_dropShadow_18_658"/><feBlend in="SourceGraphic" in2="effect1_dropShadow_18_658" result="shape"/></filter></defs></svg>
